X:1
T:Rifal Jockey - A Hornpipe (Incomplete). JBut.122, The
L:1/16
Q:1/4=70
M:2/4
I:linebreak $
K:G
V:1 treble 
V:1
 AG | F2AA ddff | agfe d4 | B2cd BABG | FAdc BAGF | E4 D2AG | F2AA ddff |$ %7
"^transciption abandoned, illegible" z z z z z z z z z z z z |] %8
